X:1
T:3. FUGA
T:3. FUGA
T:Samuel Scheidt (1587 - 1654)
T:from Tabulatura nova. 1624 Zweiter Theil SSWV 129
C:Samuel Scheidt (1587 - 1654)
Z:from Tabulatura nova. 1624 Zweiter Theil SSWV
%%score { ( 1 2 ) | ( 3 4 ) }
L:1/8
Q:1/2=58
M:4/2
K:C
V:1 treble nm="Cembalo" snm="Cbl."
V:2 treble 
V:3 bass 
V:4 bass 
V:1
 d8 B4 e4 | A4 d4 G2 A2 B2 c2 | d8 z4 c4- | c4 B4 e8 | d4 c2 B2 A2 G2 A4 | d4 B4 c4 A4 | %6
 B2 c2 d2 c2 B8 | z16 | z16 | z4 d4 B4 e4 | A4 d4 G2 A2 B2 c2 | d8 d2 c2 B2 A2 | %12
 G2 A2 B2 G2 ^F2 G4 F2 | G8 z8 | z16 | G8 E4 A4 | D4 G4 C2 D2 E2 F2 | G8 G2 A2 B2 c2 | %18
 d2 d2 B4 z2 c2 A4 | B2 c2 d4 B8 | c8 z4 z2 G2 | E2 F2 G2 A2 B2 c2 d2 cB | A2 G2 A2 d4 B4 e2- | %23
 e2 A4 d6 G2 A2 | B2 c2 d4 e4 c4 | A4 B4 c2 Ad Becf | d4 z4 z2 A4 ^F2- | F2 G4 E4 A4 D2- | %28
 D E2 ^F2 G2 A F4 z ABc | d8 B4 e4 | A4 d4 G2 A2 B2 c2 | d4 e2 dc B2 c2 d4 | c6 B2 GFEC FDGF | %33
 ECed cBAG ^F2 G4 F2 | G2 dc BGBA GEed ^cA c2 | d2 d=c BG B2 c2 AG ^FDBA | GEcB AFdc BG B4 A2- | %37
 A2 G4 F2 z2 GF EC E2 | D8 d8 | B4 e4 A4 d4 | G4 A4 B4 c4 | d8 z2 d2 A2 Bc | %42
 d>ed>c B>cd>B c>dc>B A>Bc>A | B>AG>F E2 A2 D2 d2 edcB | A2 G2 A4 z8 | z16 | z16 | %47
 z4 G4 G3 A B2 cd | G4 c>de>c d>ed>c B>cd>B | c>BA>G ^F2 B2 G2 A4 dc | B4 z4 z8 | z16 | %52
 z8 z2 d2 A2 Bc | d>ed>c B>cd>B c>dc>B A>Bc>A | B>AG>F E2 A2 D2 d2 edcB | A4 z2 d2 A2 Bc d>ed>c | %56
 B>cB>A G>AB>G A4 z4 | z16 | z8 G>AG>F E>FG>E | G16 | d>ed>c B>cd>B c4 e4 | c>dc>B A>Bc>A B4 d4 | %62
 B>cB>A G>AB>G A4 G4 | E8 G4 B4 | c4 z4 e>dc>B A2 d2 | G2 G2 A>GF>E D4 z2 A>G | %66
 F>E D2 G4 z2 d2 e>dc>B | A2 d2 G4 F2 A2 d>cB>A | G4 c>BA>G ^F4 G2 F2 | G4 z2 GF EF G2 CD E2 | %70
 D2 dc Bc d2 G2 B2 c2 B2 | A2 dc Bc d2 A4 G4 | ^F4 G2 =F2 E2 AG FG A2 | E4 A4 A8 | z8 d8 | B8 e8 | %76
 A8 d8 | G8 A8 | B8 c8 | d8 z2 dc Bc d2 | G4 c8 d4 | z2 BA BGAB c8 | z2 cB A2 G2 F2 G2 A2 F2 | %83
 G6 G2 A4 B4 | c8 B2 A2 B2 c2 | d4 G4 c8 | c2 B2 A2 G2 F4 G4 | z2 EF G2 E2 z2 ^FG A2 F2 | %88
 z2 GA B2 G2 z2 AB c2 A2 | z2 Bc d2 B2 z2 d2 B2 d2 | z2 GA B2 G2 z2 AB c2 A2 | z2 A2 d2 c2 B8 | %92
 z16 | G8 A8 | B8 c8 | d8 z8 | z4 z2 c4 B2 A4- | A2 G2 ^F4 E8 | z4 z2 A4 G4 F2- | %99
 F2 E2 D2 G4 F2 E4 | ^D2 E4 =D2 C4 z2 c2- | c2 B2 A4 z4 z2 d2- | d2 c2 B4 A8 | z4 z2 f4 e2 d4 | %104
 c4 z2 c4 _B2 A4 | z4 z2 e4 d2 c2 d2- | d2 c4 _B4 A2 G4 | F4 E4 D4 C4 | z2 G4 F2 E2 F4 E2 | %109
 A4 z2 c4 _B4 A2- | A2 D4 D4 G4 G2- | G2 F2 E4 D8 | z2 d2 B2 e2 A2 d2 GABc | d4 A4 d2 B2 c2 A2 | %114
 G4 z4 z2 d2 B2 e2 | A2 d2 GABc d4 z2 G2 | E2 A2 D2 G2 CDEF G4 | D4 G2 E2 F2 D2 C4 | %118
 z4 z2 G2 E2 A2 D2 G2 | CDEF G4 z2 D2 EFGE | ^F2 G3 G F2 G4 z4 | z2 A2 BcdB ^c2 d3 d c2 | %122
 d4 A8 z4 | z4 z2 E2 DEFD E2 F2 | E4 D2 z2 z8 | z2 G2 ABcA B2 c3 c B2 | c4 z4 z8 | %127
 z4 z2 D2 EFGE ^F2 G2- | GG ^F2 G4 z4 z2 A2 | GABG A2 B2 A4 z4 | z8 z2 d2 B4 | z2 e2 c4 z2 d2 G4 | %132
 z2 G2 A4 z2 A2 B4 | z2 B2 c4 z2 c2 d4 | z2 B2 A2 G2 A2 A2 ^F4 | z2 B2 E4 z2 A2 D4 | %136
 z2 D2 E4 z2 E2 ^F4 | z2 ^F2 G4 z2 G2 A4 | z2 B2 A2 G2 A2 d2 B2 e2 | A2 d2 GABc d2 c2 A2 d2 | %140
 G2 c2 FGAB c2 B2 G2 c2 | F2 A2 DEFG A2 G2 E2 A2 | D2 G2 CDEF G/D/E/F/ G/A/B/A/ G/A/B/G/ c/B/A/G/ | %143
 F/G/A/F/ _B/A/G/F/ E/D/E/F/ G/F/G/A/ D/E/F/D/ A/G/A/G/ F/E/F/E/ D/E/F/D/ | %144
 E/D/E/F/ G/F/E/D/ C/B,/C/D/ E/D/E/F/ G/A/B/c/ d/c/d/A/ d/c/B/A/ G/A/B/G/ | %145
 c/B/A/G/ A/B/c/A/ B/A/B/c/ d/c/d/e/ A/B/c/d/ e/d/c/B/ c/B/A/G/ A/B/c/A/ | %146
 B/c/d/B/ e/d/c/B/ A/G/A/B/ c/B/c/d/ G/E/G/A/ B/c/d/B/ e/d/c/B/ c/d/e/c/ | %147
 A/B/c/A/ B/c/d/B/ c/G/B/A/ G/F/G/A/ B/g/f/e/ d/c/B/A/ c/B/c/B/ c/B/A/B/ | c4 d4 B4 e4 | %149
 A4 d4 G2 A2 B2 c2 | d8 d8 | %151
 c(B/A/) (G/F/)(E/D/) (C/B,/)(C/D/) (E/D/)(E/F/) (G/[Q:1/2=58]C/)(D/E/) (F/E/)[Q:1/2=57]"^.9"(F/[Q:1/2=57]"^.9"G/)[Q:1/2=57]"^.8" (A/[Q:1/2=57]"^.7"G/)[Q:1/2=57]"^.6"(A/[Q:1/2=57]"^.4"B/)[Q:1/2=57]"^.2" (c/[Q:1/2=56]"^.9"B/)[Q:1/2=56]"^.6"(c/[Q:1/2=56]"^.1"A/) | %152
[Q:1/2=55]"^.6" (B/[Q:1/2=55]D/)[Q:1/2=54]"^.3"(E/[Q:1/2=53]"^.5"^F/)[Q:1/2=52]"^.6" (G/[Q:1/2=51]"^.5"F/)[Q:1/2=50]"^.3"(G/[Q:1/2=49]A/)[Q:1/2=47]"^.4" B[Q:1/2=45][Q:1/2=43]"^.9"c[Q:1/2=41][Q:1/2=39]"^.5"B[Q:1/2=37][Q:1/2=34]"^.2"A[Q:1/2=31][Q:1/2=28] B8 |] %153
V:2
 z16 | z16 | G8 E4 A4 | D4 G4 C2 D2 E2 F2 | G2 D2 E2 G2 ^F8 | z4 G8 =F4 | D4 G4 z4 G4- | %7
 G4 E4 A4 D4 | G4 C4 B,4 G2 D2 | D2 B,2 D4 z4 G4 | F8 E2 ^F2 G4- | G4 ^F4 G8 | C4 B,2 C2 D8 | %13
 z2 D2 B,4 z2 C2 A,4 | B,2 C2 D2 CB, A,2 B,2 C2 D2 | E2 DC B,4 C8 | B,8 A,2 B,2 C4- | %17
 C4 B,2 C2 D2 EF G4 | G4 z2 G2 E4 z2 F2 | D4 G4 z4 G4 | E4 A4 D4 G4 | C2 D2 E2 F2 G8 | %22
 ^F2 E2 F4 G8 | C2 E2 ^F4 B,2 C2 D2 E=F | G12 A2 E2 | ^F4 G2 D2 E2 =F2 G2 A2 | G2 D4 ^C2 D8 | %27
 D4 E2 B,2 C4 A,4 | B,2 C2 D2 E2 D4 ^F4 | z DE^F GFGA D4 z CDE | F4 D4 CECF D2 E2 | %31
 ^F2 G4 F2 G=FEC FDGF | E2 G2 A2 D2 C4 A,2 D2 | C2 GF EDCB, A,2 D2 E2 D2 | D4 z4 z2 ^G2 A2 A=G | %35
 ^FD F2 G2 G=F EC E2 D2 ^F2 | E2 G2 F2 A2 z2 G4 F2- | F2 E4 D2 D4 z2 CB, | %38
 A,2 B, C2 B, A,2 B,2 G2 D2 E^F | G>AG>=F E>FG>E F>GF>E D>EF>D | E>DC>B, A,2 D2 G,2 G2 A>GF>E | %41
 ^F2 D2 G2 FE F8- | F4 G4 E4 =F4 | D4 C2 F2 G6 AG | ^F2 G4 F2 z2 G2 D2 E=F | %45
 G>AG>F E>FG>E F>GF>E D>EF>D | E>DC>B, A,2 D2 G,2 G2 A>GF>E | D>ED>C B,2 C2 D2 EF G4 | %48
 E4 A4 D4 G4 | C4 D4 E4 =F4 | G4 ^F2 GA D4 G>AB>G | A>_BA>G F>GA>F G>FE>D C2 F2 | D2 E4 AG ^F8 | %53
 D4 G4 E4 z4 | D>CB,>D C2 F2 G2 D2 GFEG | ^F8 F8 | G>AG>F E>FG>E F>GF>E D>EF>D | %57
 E>FE>D C>DE>C D4 E4 | C4 D4 C8 | D>ED>C B,>CD>B, E>FE>D C>DE>C | G8 E>FE>D C>DE>C | %61
 E4 F4 D>ED>C B,>CD>B, | D4 E4 A,4 D4 | C8 D8 | E>FE>D C>DE>C G2 A>G F4 | E2 z2 z4 z2 D2 FE F2- | %66
 F2 G2 C2 E2 A,2 F2 G>FE>D | C2 F2 E>DC>B, A,2 D2 D4 | z2 E2 E>DC>B, A,4 z2 DC | %69
 B,C D2 G,A, B,2 C2 CB, A,B, C2 | B,4 D6 G4 G2 | ^F4 G4 F4 D4 | D8 ^C4 D4 | ^C4 D4 C2 D4 C2 | %74
 D2 D=C B,C D2 A,4 B,2 A,2 | G,2 D2 G2 D2 G4 CD E2 | C2 F4 E2 F2 DC B,C D2 | B,2 E4 E2 C8 | %78
 z2 GF EF G2 C2 ED CD E2 | B,2 ^F2 G2 F2 G8 | E8 A8 | D8 G8 | C8 D8 | E8 F8 | G8 G8 | z4 G4 G4 A4 | %86
 z4 C4 D4 G,4 | z2 C2 D2 C4 D2 E2 D2- | D2 E2 ^F2 E4 =F2 G2 F2 | z2 G2 A2 G2 z2 G4 D2 | %90
 z2 EF G2 E2 z2 E2 A2 E2 | ^F8 z2 D2 G2 =F2 | E8 z2 A,2 D2 C2 | z2 B,2 E2 D2 z2 C2 F2 E2 | %94
 z2 D2 G2 F2 E3 D C4 | F3 E D4 G2 F2 E2 D2 | ^C2 D4 =CB, A,2 D2 D4 | ^D2 E4 =D4 C2 B,4 | %98
 ^C2 D4 =C4 B,2 A,2 DC | B,2 C4 B,2 ^C2 D4 =C2 | B,4 z2 B,4 A,2 G,2 G2 | ^F2 G4 =F4 E2 D2 G2- | %102
 G2 A4 G4 F2 E4 | ^F2 G4 =FE D2 G4 GF | E2 F4 E2 A,2 D4 D2- | D2 C2 B,4 A,2 DE F4- | %106
 F2 E2 D2 G2 E2 F4 E2- | E2 D4 C4 _B,4 A,2 | z4 z2 D2 G,2 C2 z2 C2- | C2 D4 C2 F6 C2- | %110
 C2 _B,2 A,4 =B,2 C4 B,2 | ^C2 D4 =C4 B,2 A,4 | B,8 z2 D2 EFGE | ^F2 G3 G F2 G4 E2 F2 | %114
 G4 z4 z4 z2 G2 | F4 EF G4 ^F2 G2 E2 | C4 z2 G,2 A,B,CA, B,2 C2- | CC B,2 C4 A,2 B,2 C4 | %118
 z4 z2 D2 C2 E2 z2 D2 | A,B,CA, B,2 C3 C B,2 C4- | C2 B,2 A,2 D2 z2 DE D4 | D4 D2 GF E2 F2 E4 | %122
 DEFG E2 F2 E2 EF G2 FG | A2 F2 E2 A,2 B,CDB, ^C2 D2- | DD ^C2 D2 E2 =CDEC D2 E2 | D4 E4 D2 C2 D4 | %126
 C4 G,4 z2 G,2 A,B,CA, | B,2 C3 C B,2 C2 B,2 A,2 G,2 | A,4 G,A,B,C D2 B,2 A,2 DC | %129
 B,3 E D4 z2 D2 EFGE | ^F2 G3 G F2 G4 D4 | G4 E4 F4 D4 | E8 F8 | G8 A8 | G4 z4 ^F4 D4 | %135
 D4 B,4 C4 A,4 | B,8 C8 | D8 E8 | ^F2 G2 F2 E2 FGAF GFGE | %139
 =FEFD EFGE D/E/F/G/ A/E/A/G/ F/E/D/C/[I:staff +1] B,/A,/G,/F,/ | %140
 E,/D,/C,/B,,/ A,,/G,,/F,,/E,,/ D,,/D,/E,/C,/ F,/D,/G,/E,/ A,/B,/C/[I:staff -1]D/ E/F/G/F/ E/D/C/[I:staff +1]B,/ A,/G,/F,/E,/ | %141
 D,/D/C/B,/ A,/B,/C/A,/ B,/G,/C/A,/[I:staff -1] D/B,/E/C/ F/E/F/D/ E/B,/E/D/[I:staff +1] C/B,/C/A,/ A,/F,/[I:staff -1]D/C/ | %142
[I:staff +1] B,/A,/B,/G,/ G,/E,/C/B,/ A,/G,/F,/D,/ C,/C/D/C/[I:staff -1] B,2 D2 E4 | %143
 D4 C4 B,2 C2 D2 z2 | C2 B,2 A,4 G,2 A,2 G,4 | A,4 G,4 ^F,2 G,2 A,4 | %146
[I:staff +1] G,4 =F,4 E,2 G,2 G,2 A,2 | ^F,2 G,2 E,4 D,2 E,2 G,4 |[I:staff -1] z4 G4 G8 | %149
 z4 D4 E2 ^F2 G4- | G4 ^F4 G2 D2 G2 =F2 | E2 z2 z4 z8 | z4 z/"^.8" D"^.8"ED"^.3"C/ D8 |] %153
V:3
 z16 | z16 | z16 | z16 | z8 D8 | B,4 E4 A,4 D4 | G,2 A,2 B,2 C2 D8 | z4 C8 B,4 | E8 D4 C2 B,2 | %9
 A,2 G,2 A,4 D2 B,4 C2- | C2 A,4 B,4 A,2 G,2 A,2 | B,2 C2 D2 C2 B,2 A,2 G,2 F,2 | %12
 E,2 F,2 G,2 E,2 A,2 B,2 A,4 | G,4 z2 G,2 E,4 z2 F,2 | D,4 D,2 E,2 F,2 G,2 A,2 G,F, | %15
 E,2 F,2 G,6 E,4 ^F,2- | F,2 D,4 E,4 D,2 C,2 D,2 | E,2 F,2 G,2 A,2 B,2 C2 D4 | B,4 E4 A,4 D4 | %19
 G,2 A,2 B,2 C2 D4 z2 E2 | C4 z2 C2 B,4 C4 | G,6 C,2 D,4 B,2 C2 | D4 z2 D2 B,4 E4 | %23
 A,4 D4 G,2 A,2 B,2 C2 | D4 D2 B,4 E4 A,2- | A,2 D4 G,3 A,2 B,2 C2 D | B,4 A,2 G,2 ^F,6 A,2 | %27
 B,2 G,4 G,2 E,4 ^F,4 | G,2 E,A, D,2 G,C A,A,B,C D4 | z4 z D,E,^F, G,4 G,4 | %30
 DA,DC B,4 C2 A,2 G,3 A, | A,2 B,2 A,4 G,8 | G,F,E,C, F,D,G,F, E,2 G,2 z2 G,2 | %33
 G,6 E2 DCB,G, CA,DC | B,4 D4 E2 B,2 A,2 E2 | D2 A,2 G,2 D2 C3 B, A,2 DC | B,G,ED CA,FE D4 C4 | %37
 B,4 A,4 G,6 A,G, | ^F,D,G,E, F, G,2 F, G,4 z4 | z16 | z16 | z8 D8 | B,4 E4 A,4 D4 | %43
 G,4 A,4 B,4 C4 | D8 B,8- | B,4 C4 A,4 B,4 | G,4 F,4 C6 DC | B,>CB,>A, G,2 A,2 B,2 C2 G,2 A,B, | %48
 C>DC>B, A,>B,C>A, B,>CB,>A, G,>A,B,>G, | A,>G,F,>E, D,2 G,2 C,2 C2 DCB,A, | G,2 B,2 D4 B,4 E4 | %51
 A,4 D4 G,4 A,4 | B,4 C4 D8 | G,8 A,4 ^F,>G,A,>F, | G,2 D,2 A,2 C2 G,8 | z2 D2 A,2 B,C D8 | %56
 z8 D>ED>C B,>CD>B, | C>DC>B, A,>B,C>A, B,>CB,>A, G,>A,B,>G, | A,>B,A,>G, F,>G,A,>F, G,8 | %59
 G,8 G,>A,G,>F, E,>F,G,>E, | B,>CB,>A, G,>A,B,>G, A,8 | A,>B,A,>G, F,>G,A,>F, G,8 | %62
 G,>A,G,>F, E,>F,G,>E, ^F,4 G,4 | G,4 A,4 G,8 | G,4 A,4 G,2 E,2 z2 A,2 | %65
 C2 E>D C>B, A,2 B,4 C2 C2 | D>CB,>A, G,2 C2 F,2 A,2 C2 G,2 | z2 A,2 C2 G,2 C2 F,2 G,4 | %68
 G,4 A,4 z2 A,2 D2 A,2 | z2 G,F, E,F, G,2 C,D, E,2 F,2 C,2 | G,8 B,2 D2 E2 D2 | D8 z2 DC B,C D2 | %72
 A,4 B,2 A,2 A,8 | z2 A,G, F,G, A,2 E,2 F,G, E,4 | ^F,4 G,4 F,4 G,2 F,2 | %75
 G,2 G,F, E,F, G,2 C,2 z2 z4 | z2 CB, A,B, C2 A,2 B,A, G,A, B,2 | %77
 E,2 B,2 C2 B,2 z2 A,G, ^F,G, A,2 | D,4 G,4 E,2 CB, A,B, C2 | G,2 A,2 B,2 A,2 G,4 D,2 G,2- | %80
 G,2 G,2 A,2 G,2 F,2 F,E, F,D,E,F, | G,8 E,2 G,F, G,E,F,G, | A,8 A,8 | C2 B,A, G,2 C2 C4 D4 | %84
 E8 D8 | B,8 E8 | A,8 D8 | G,8 A,8 | B,8 C8 | D8 z2 B,C D2 B,2 | z2 B,2 G,2 B,2 z2 CD E2 C2 | %91
 A,8 G,8- | G,2 E,2 A,2 G,2 z2 ^F,2 B,2 A,2 | z2 G,2 C2 B,2 z2 A,2 D2 C2 | %94
 z2 B,2 E2 D2 C2 G,2 A,4 | z2 A,2 B,3 A, G,4 G,4- | G,2 F,2 E,4 ^F,2 G,4 F,2- | %97
 F,2 B,4 B,A, ^G,2 A,4 =G,2- | G,2 F,2 E,4 ^F,2 G,2 A,4 | G,8 E,2 F,G, A,4- | %100
 A,2 G,2 ^F,4 E,2 =F,4 E,2 | A,2 D4 DC B,2 C4 B,2- | B,2 E4 ED ^C2 D4 =C2- | %103
 C2 B,2 A,4 B,2 C4 _B,2- | B,2 A,2 G,4 ^F,2 G,4 F,2 | ^G,2 A,4 G,2 A,2 _B,4 A,2 | B,2 C2 D4 C8 | %107
 A,8 F,8 | z2 _B,2 A,2 B,4 A,2 G,4- | G,2 F,2 E,4 D,4 C,2 F,2- | F,2 G,2 F,6 E,2 D,4 | %111
 A,8 ^F,2 G,4 F,2 | G,8 z8 | z4 z2 D2 B,2 E2 A,2 D2 | G,A,B,C D4 A,4 G,2 C2- | %115
 C A,2 B,2 A,G,A, B,C D4 C2 | G, C2 A, B,4 z8 | z2 G,2 E,2 A,2 D,2 G,2 C,D,E,F, | %118
 G,4 D,4 G,2 C2 G,2 B,2 | E,2 C,2 D,2 E,F, G,8 | D,6 A,2 G,A,B,C A,2 B,2 | A,4 G,4 A,4 z2 A,2 | %122
 B,CDB, ^C2 D3 D C2 D4 | E2 A,2 A,4 z8 | z4 z2 G,2 A,B,CA, B,2 C2- | CC B,2 C4 G,4 G,4 | %126
 E,D,E,F, D,2 E,2 D,4 C,4 | D,2 C,2 D,2 G,2 G,4 D4 | z2 D,2 E,F,G,E, ^F,2 G,3 G, F,2 | %129
 G,4 z4 A,4 B,4 | A,2 G,2 A,4 B,4 z2 G,2 | B,4 C4 A,4 B,4 | C8 A,4 D4 | B,4 E4 C4 F4 | D8 D4 A,4 | %135
 B,4 G,4 E,4 ^F,4 | G,8 E,4 A,4 | ^F,4 B,4 G,4 C4 | A,2 D6 D4 z4 | z16 | z16 | z16 | %142
 z8 z2 B,2 B,2 A,2 | A,2 G,2 G,4 G,2 A,4 B,2 | G,4 F,4 E,2 ^F,2 D,2 z2 | %145
 E,2 F,2 D,4 D,2 z E, E,2 ^F,2 | D,2 C,2 C,4 C,2 D,2 z2 E,2 | D,2 D,2 C,4 z2 C,2 D,4 | %148
 C,/D,/E,/F,/ G,/A,/B,/C/ B,>A,B,>C D4 C4- | C4 B,4 B,6 A,G, | A,2 G,2 A,4 G,8 | G,12 E,4 | %152
 D,4 G,4 G,8 |] %153
V:4
 z16 | z16 | z16 | z16 | z16 | z16 | z8 G,8 | E,4 A,4 D,4 G,4 | C,2 D,2 E,2 F,2 G,2 D,2 E,2 G,2 | %9
 ^F,2 G,4 F,2 G,4 E,4 | F,4 D,4 E,8 | D,8 z8 | z8 D,8 | B,,4 E,4 A,,4 D,4 | %14
 G,,2 A,,2 B,,2 C,2 D,2 C,B,, A,,2 B,,2 | C,2 D,2 E,2 D,2 C,4 A,,4 | B,,4 G,,4 A,,8 | G,,8 G,,8 | %18
 z16 | z8 z2 G,2 E,4 | z2 A,2 F,4 z2 G,2 E,2 C,2 | C,6 A,,2 G,,4 z4 | z16 | z8 G,8 | %24
 G,6 G,2 E,4 A,4 | D,4 G,4 C,2 D,2 E,2 F,2 | G,4 F,2 E,2 D,4 D,4 | B,,4 E,4 A,,4 D,4 | %28
 G,,2 A,,2 B,,2 C,2 D,8 | D,4 z4 z G,,A,,B,, C,4 | z4 G,D,G,F, E,C,F,D, G,G,,C,A,, | %31
 D,C,B,,G,, C,A,, D,2 G,,2 C,4 B,,2 | C,4 z4 z2 C,2 D,2 B,,2 | C,8 D,2 z2 z4 | G,8 E,4 A,4 | %35
 D,4 G,4 C,4 D,4 | E,4 F,4 G,2 G,F, E,C,F,E, | D,B,,E,D, C,A,,D,C, B,,G,, B,,2 C,4 | D,8 z8 | z16 | %40
 z16 | z16 | z16 | z16 | z8 G,8 | E,4 A,4 D,4 G,4 | C,4 D,4 E,4 F,4 | G,4 z4 z8 | z16 | z16 | %50
 z2 G,2 D,2 E,^F, G,>A,G,>=F, E,>F,G,>E, | F,>G,F,>E, D,4 E,>D,C,>B,, A,,2 D,2 | %52
 G,,2 G,2 A,G,F,E, D,8 | B,,4 E,4 A,,4 D,4 | G,,4 A,,4 B,,4 C,4 | D,8 z8 | z16 | %57
 z8 G,>A,G,>F, E,>F,G,>E, | F,>G,F,>E, D,>E,F,>D, E,>F,E,>D, C,>D,E,>C, | %59
 B,,>C,B,,>A,, G,,>A,,B,,>G,, C,8 | z16 | z16 | z8 D,>E,D,>C, B,,>C,D,>B,, | %63
 C,>D,C,>B,, A,,>B,,C,>A,, B,,>C,B,,>A,, G,,>A,,B,,>G,, | C,8 C,4 D,4 | %65
 E,>D,C,>B,, A,,2 D,2 G,,2 G,2 A,>G,F,>E, | D,2 G,>F, E,>D, C,2 D,4 C,4 | %67
 F,2 D,2 E,4 F,>E,D,>C, B,,4 | E,>D,C,>B,, A,,4 D,2 D,C, B,,C, D,2 | G,,4 z4 z8 | %70
 z8 z2 G,F, E,F, G,2 | D,8 D,8- | D,2 D,C, B,,C, D,2 A,,8 | A,,8 A,,8 | D,8 z2 D,C, B,,C, D,2 | %75
 G,,2 z2 z4 z2 CB, A,B, C2 | F,2 A,G, F,G, A,2 D,2 z2 z4 | z2 E,D, C,D, E,2 A,,8 | %78
 G,,8 A,,2 z2 z4 | z2 D,C, B,,C, D,2 G,,6 B,,2 | C,2 C,B,, A,,B,, C,2 F,,4 z4 | %81
 z8 z2 E,D, E,C,D,E, | F,6 E,2 D,2 E,2 F,2 D,2 | C,2 D,2 E,2 C,2 F,G,F,E, D,C, D,2 | %84
 C,2 D,2 E,2 F,2 G,8 | G,2 F,2 E,2 D,2 C,2 B,,2 A,,2 G,,2 | F,,4 F,2 E,2 D,2 C,2 B,,A,, B,,2 | %87
 C,2 C,2 B,,2 C,2 A,,2 D,2 ^C,2 D,2 | B,,2 E,2 D,2 E,2 C,2 F,2 E,2 F,2 | D,2 G,2 ^F,2 G,2 G,8 | %90
 E,8 A,8 | D,8 G,8 | C,8 D,8 | E,8 F,8 | G,8 z2 C,2 F,2 E,2 | z2 D,2 G,3 F, E,2 D,2 C,2 B,,2 | %96
 A,,8 D,8 | B,,8 E,8 | A,,8 D,8 | G,,8 A,,8 | B,,8 C,8 | D,8 G,8 | E,8 A,8 | D,8 G,8 | C,8 D,8 | %105
 E,8 F,8 | G,8 z8 | z16 | D,8 C,8 | A,,8 F,,8 | D,,8 G,,8 | z4 A,,4 D,8 | G,8 z8 | z8 z4 z2 D,2 | %114
 E,F,G,E, ^F,2 G,3 G, F,2 G,2 E,2 | =F,2 D,2 E,4 D,3 C, B,,2 C,2- | C,2 F,2 G,4 z8 | %117
 z8 z2 G,,2 A,,B,,C,A,, | B,,2 C,3 C, B,,2 C,2 A,,2 B,,2 G,,2 | A,,4 G,,8 C,4 | %120
 z4 z2 D,2 E,F,G,E, ^F,2 G,2- | G,G, ^F,2 G,4 z8 | z8 z2 A,,2 B,,C,D,B,, | %123
 ^C,2 D,3 D, C,2 D,4 A,,4- | A,,2 A,,2 B,,2 C,2 A,,4 G,,2 C,2 | G,4 z4 z4 z2 G,,2 | %126
 A,,B,,C,A,, B,,2 C,3 C, B,,2 C,4 | G,,8 C,4 D,4 | z8 z4 z2 D,2 | E,F,G,E, ^F,2 G,3 G, F,2 G,4 | %130
 D,8 G,4 z2 G,2 | E,4 z2 A,2 D,4 z2 G,2 | C,4 z2 C,2 D,4 z2 D,2 | E,4 z2 E,2 F,4 z2 F,2 | %134
 G,8 D,6 D,2 | B,,4 z2 E,2 A,,4 z2 D,2 | G,,4 z2 G,,2 A,,4 z2 A,,2 | B,,4 z2 B,,2 C,4 z2 C,2 | %138
 D,8 D,4 z4 | z16 | z16 | z16 | z8 z2 G,2 E,2 A,2 | D,2 G,2 C,D,E,F, G,2 F,2 D,2 G,2 | %144
 C,2 E,2 A,,B,,C,D, E,2 D,2 B,,2 E,2 | A,,2 D,2 G,,A,,B,,C, D,2 C,2 A,,2 D,2 | %146
 G,,2 C,2 F,,G,,A,,B,, C,2 G,,2 E,,2 A,,2 | D,,2 G,,2 C,,D,,E,,F,, G,,8 | z4 G,4 G,4 E,4 | %149
 ^F,4 G,4 E,8 | D,6 C,2 B,,8 | C,16 | G,,8 G,,8 |] %153

